X:163
T:Reel 163
M:4/4
K:Ador
L:1/8
BA|GEE2 GECE|GFDC B,A,G,B,|G,A,EA, GA,FA|GEDF G2BA|GEEF EDCA,|G,2B,D GFGA|BGAF GEFD|DB,DB, A,2|D2|GBAF GBAF|GFAB GEDF|EAAF GFGA|BEGB A2BA|GABc dBAG|BDAF GFED|DEEF GFGE|BEAB A2|
